X: 76
T: la point de Jour
%R: march, reel
B: Stewart "A Select Collection of Airs, Jigs, Marches and Reels", ca.1784, p.37 #76
F: http://imslp.org/wiki/A_Select_Collection_of_Airs,_Jigs,_Marches_and_Reels_%28Various%29
Z: 2017 John Chambers <jc:trillian.mit.edu>
M: 2/4
L: 1/8
K: G
|:\
GDBG | dBge | dcBA | {c}BA/B/ GD |\
GDBG | dBge | dcBA | G2G2 ::\
bgaf | gefd | ^cdef | e/d/c/B/ AA |
dAfd afd'b | agfe | d2d2 |\
GDBG | dBge | dcBA | {c}BA/B/ GD |\
GDBG | dBge | dcBA | G2G2 :|
